X:1
T:No More Good-Byes
T:No More Good-Byes
T: James Henry Fillmore
T:Eden Reeder Latta, 1884
T:Public Domain Courtesy of the Cyber Hymnal™
T:Public Domain Courtesy of the Cyber Hymnal™
C:James Henry Fillmore
Z:Public Domain
Z:Courtesy of the Cyber Hymnal™
%%score ( 1 2 ) 3
L:1/8
Q:1/4=93
M:4/4
K:Eb
V:1 treble 
V:2 treble 
V:3 bass 
V:1
 E>[EF] | [EG]>[EF] E>[EF] [EG]2 [EG]>[FA] | [GB]>[FA] [EG]>[FA] [GB]2 [GB]>[GB] | %3
w: 1.~Where life’s|crys- tal stream doth flow, And the|tree of life doth bloom, Where no|
w: 2.~There the|good a- gain shall meet, Who have|clasped the part- ing hand; Fa- thers,|
w: 3.~Where no|signs of age are seen, And they|nev- er sor- row more, Where no|
 [Ac]>[Bd] [ce]>[Ac] [GB]>[EG] [DF]E | [EG]2 [DF]2 !fermata![DF]2 E>[EF] | %5
w: chill- ing frost can fall, On flowers that|sweet- ly bloom; Where the|
w: mo- thers, child- ren dear, A- round the|throne shall stand; There no|
w: sick- ness e’er can come, Where death has|lost his power, Where they|
 [EG]>[EF] E>[EF] [EG]2 [EG]>[FA] | [GB]>[FA] [EG]>[FA] [GB]2 [GB]>[GB] | %7
w: glo- ry of the Lord Shines thro’|all the cloud- less skies, There, as|
w: tem- pest e’er shall blow, There no|dis- mal cloud a- rise, And in|
w: feel no weight of care, And no|tears be- dim the eyes; All the|
 [Ac]>[Bd] [ce]>[Ac] [GB]>[EG] [DF]E | [EG]2 [DF]2 !fermata!E x3 ||"^Refrain" [GB][FA]>[EG] x2 | %10
w: end- less ag- es roll, Shall be no|more good- byes.||
w: that e- ter- nal home, Shall be no|more good- byes.|No more good-|
w: good shall meet a- gain, And speak no|more good- byes.||
 [DF]4- [DF][Ac] [GB]>[FA] | [EG]4- [EG][GB] [FA]>[EG] | [DF]4- [DF][Fe] [Fd]>[Ec] | [DB]6 E>[EF] | %14
w: ||||
w: byes, * no more good-|byes, * O, bless- èd|thought! * No more good-|byes; Midst the|
w: ||||
 [EG]>[EF] E>[EF] [EG]2 [EG]>[FA] | [GB]>[FA] [EG]>[FA] [GB]2 [GB]>[GB] | %16
w: ||
w: glo- ry of the Lord, In that|home be- yond the skies, Where the|
w: ||
 [Ac]>[Bd] [ce]>[Ac] [GB]>[EG] [DF]E | [EG]2 [DF]2 !fermata!E2 x2 |] x6 |] %19
w: |||
w: end- less ag- es roll, Shall be no|more good- byes.||
w: |||
V:2
 E3/2 x/ | x2 E3/2 x9/2 | x8 | x7 E | x6 E3/2 x/ | x2 E3/2 x9/2 | x8 | x7 E | x4 E x3 || x5 | x8 | %11
 x8 | x8 | x6 E3/2 x/ | x2 E3/2 x9/2 | x8 | x7 E | x4 E2 x2 |] x6 |] %19
V:3
 [E,G,]>[E,A,] | [E,A,]>[E,A,] [E,G,]>[E,A,] [E,B,]2 [E,B,]>[E,B,] | %2
w: ||
 [E,B,]>[E,B,] [E,B,]>[E,B,] [E,E]2 [E,E]>[E,E] | [A,E]>[A,E] [A,E]>[A,E] [E,E]>[E,B,] [E,A,] x | %4
w: ||
 [E,G,] x7 | [B,,B,]2 [B,,B,]2 !fermata![B,,B,]2 [E,G,]>[E,A,] | %6
w: ||
 [E,B,]>[E,A,] [E,G,]>[E,A,] [E,B,]2 [E,B,]>[E,B,] | %7
w: |
 [E,B,]>[E,B,] [E,B,]>[E,B,] [E,E]2 [E,E]>[E,E] | %8
w: |
 [A,E]>[A,E] [A,E]>[A,E] [E,E]>[E,B,] [E,A,][E,G,] || [B,,B,]2 [B,,A,]2 !fermata![E,G,] | z3 x5 | %11
w: |||
 z [B,,B,] [B,,B,]>[B,,B,] [B,,B,]2 z2 | z [E,B,] [E,B,]>[E,B,] [E,B,]2 z2 | %13
w: No more good- byes,|No more good- byes,|
 z [F,B,] [F,B,]>[F,B,] [F,B,][F,C] [F,B,]>[F,=A,] | [B,,B,]6 [E,G,]>[E,A,] | %15
w: O, bless- èd thought! * * *||
 [E,B,]>[E,A,] [E,G,]>[E,A,] [E,B,]2 [E,B,]>[E,B,] | %16
w: |
 [E,B,]>[E,B,] [E,B,]>[E,B,] [E,E]2 [E,E]>[E,E] | %17
w: |
 [A,E]>[A,E] [A,E]>[A,E] [E,E]>[E,B,] [E,A,][E,G,] |] [B,,B,]2 [B,,A,]2 !fermata![E,G,]2 |] %19
w: ||

